X:16
T:New Broom, The
R:barndance
C:Vincent Broderick (1920-2008)
Z:id:hn-barndance-16
M:C|
L:1/8
K:G
G2GB d2Bd | e2dB d2BA | ~G3A B2AG | A2E2 E2 (3DEF |
G2GB d2Bd | e2dB d2Bd | edge dBAc |1 B2G2 G2 (3DEF :|2 B2G2 G2ga ||
|: b2ba ~g3a | bgag egd2 | edge dBGA |1 BAAG A2ga |
b2ba g3a | bgag (3ege d2 | edge dBAc | B2G2 G2ga :|2 BAAG A2BA |
~G3B d2Bd | e2dB d2Bd | edge dBAc | B2G2 G2 (3DEF ||

